X: 162
T:Wellington's,A Grand Waltz. JaW.162
M:3/8
L:1/16
Q:60
S:James Winder Ms, Lancashire, 1835-41
R:Waltz
O:England
A:Wyresdale,Lancashire
H:1/16
Z:vmp.Chris Partington, Aug 2004
K:C
(G2c2e2)|(G2c2e2)|(G2e2f2)|{a}g4e2|\
.f2(f2d2)|.e2(e2d2)|(de)f(edc)|(BcdcBA)|!
.G2(Gc)e2|.G2(Gc)e2|(G2e2f2)|{a}g4e2|\
f2{g}(fefd)|e2{f}(edec)|(dfedcB)|d4z2:|!
|:(d2B2G2)|{A}(G2^F2G2)|(e2c2G2)|(e2c2G2)|\
.d2(dedc)|(BAGABc)|(d2B2G2)|({A}(G2^F2G2)|!
(e2B2G2)|{A}(G2^F2G2)|(f2d2G2)|(e2c2G2)|\
(dedcBA)|G^FGFGF|]
